icons/svg/account-multiple.svg

﻿<?xml version="1.0" encoding="utf-8"?>
<!DOCTYPE svg PUBLIC "-//W3C//DTD SVG 1.1//EN" "http://www.w3.org/Graphics/SVG/1.1/DTD/svg11.dtd">
<svg xmlns="http://www.w3.org/2000/svg" xmlns:xlink="http://www.w3.org/1999/xlink" version="1.1" baseProfile="full" width="24" height="24" viewBox="0 0 24.00 24.00" enable-background="new 0 0 24.00 24.00" xml:space="preserve">
	<path fill="#000000" fill-opacity="1" stroke-width="0.2" stroke-linejoin="round" d="M 15.9994,12.9981C 15.7094,12.9981 15.3824,13.0161 15.0344,13.0521C 16.1934,13.8891 16.9994,15.0151 16.9994,16.4981L 16.9994,18.9981L 22.9994,18.9981L 22.9994,16.4981C 22.9994,14.1661 18.3324,12.9981 15.9994,12.9981 Z M 7.99939,12.9981C 5.66537,12.9981 0.99939,14.1661 0.99939,16.4981L 0.99939,18.9981L 14.9994,18.9981L 14.9994,16.4981C 14.9994,14.1661 10.3324,12.9981 7.99939,12.9981 Z M 7.99939,10.9981C 9.6564,10.9981 10.9894,9.65407 10.9894,7.99807C 10.9894,6.34207 9.6564,4.99807 7.99939,4.99807C 6.34238,4.99807 4.99939,6.34207 4.99939,7.99807C 4.99939,9.65407 6.34238,10.9981 7.99939,10.9981 Z M 15.9994,10.9981C 17.6564,10.9981 18.9894,9.65407 18.9894,7.99807C 18.9894,6.34207 17.6564,4.99807 15.9994,4.99807C 14.3424,4.99807 12.9994,6.34207 12.9994,7.99807C 12.9994,9.65407 14.3424,10.9981 15.9994,10.9981 Z "/>
</svg>

<svg xmlns="http://www.w3.org/2000/svg" version="1.1" baseProfile="full" width="24" height="24" viewBox="0 0 24.00 24.00" xml:space="preserve"><path fill="#000" fill-opacity="1" stroke-width=".2" stroke-linejoin="round" d="M16 12.998c-.29 0-.618.018-.966.054 1.16.837 1.965 1.963 1.965 3.446v2.5h6v-2.5c0-2.332-4.668-3.5-7-3.5zm-8 0c-2.335 0-7 1.168-7 3.5v2.5h14v-2.5c0-2.332-4.668-3.5-7-3.5zm0-2c1.656 0 2.99-1.344 2.99-3s-1.334-3-2.99-3c-1.658 0-3 1.344-3 3s1.342 3 3 3zm8 0c1.656 0 2.99-1.344 2.99-3s-1.334-3-2.99-3c-1.658 0-3 1.344-3 3s1.342 3 3 3z"/></svg>
